X:1
T:E Major Ebenezer Child, 1804
T:Isaac Watts, 1719 (Hymn 24, Book 2)   88. 88. (L. M.)  
T:Citation
T:Transcribed from The Sacred Musician, 1804.
%%score [ 1 2 3 ]
L:1/8
M:4/4
K:E
V:1 treble nm="Tr." snm="Tr."
V:2 treble-8 nm="T." snm="T."
V:3 bass nm="B." snm="B."
V:1
 B4 B2 cd | e4 B4 | (B2 G2 A2) B2 | B8 | G4 (GFGA | B2) B2 B4- | B4 B4 | B6 cd | e8 | %9
w: 1.~When the great *|Buil- der|arched~ _ _ the|skies,|And formed~ * * *|* all na-|* ture|with a *|word,|
w: |||||||||
 (e2 c2) (B2 G2 | B2) e2 (c4 | A2) c2 B4 | B4 B4- | B4 z4 | z8 | z4 B4 | e2 e2 e2 e2 | c6 B2 | B8 | %19
w: And * formed~ _|_ all na-|* ture with|a word,|||1.~The|joy- ful che- rubs|tuned his|praise,|
w: ||||||2.~They|lost their gar- den|and their|God,|
 E4 (G4 | A2) G2 F4 | G4 G4 | (c2 d2) e4 | e4 B4 | B4 c4 | c4 B4 | B4 G4- | %27
w: ||||||||
w: ||||||||
"^3.  So sprung the plague from Adam's bower,\nAnd spread destruction all abroad;\nSin, the cursed name, that in one hour\nSpoiled six days' labor of a God!\n4.  Tremble, my soul, and mourn for grief,\nThat such a foe should seize thy breast;\nFly to thy Lord for quick relief;\nOh may he slay this treach'rous guest!\n5.  Then to thy throne, victorious King,\nThen to thy throne our shouts shall rise!\nThine everlasting arm we sing;\nFor sin, the monster, bleeds and dies." G4 z4 |] %28
w: |
w: |
 z4 z4 |] %29
w: |
w: |
V:2
 e4 d2 c2 | B4 e4 | (d3 B c2) d2 | e8 | g4 (gfed | e2) g2 f4- | f4 e4 | (d>edc B2) A2 | B8 | %9
w: 2.~And this our|two first|pa- * * rents|stood,|Till sin * * *|* de- filed|* the|hap- * * * * py|place,|
w: |||||||||
 e4 (e2 c2 | B2) G2 (A2 c2 | A2) F2 (G2 F2) | (E2 D2) E4- | E4 z4 | z4 B4 | (edcd e2) e2 | %16
w: Till sin~ _|_ de- filed~ _|_ the hap- *|py * place,||1.~The|joy- * * * * ful|
w: |||||2.~They|lost * * * * their|
 (e4 B2) G2 | (AGFA G2) F2 | E8 | G4 (A2 G2 | A2) B2 c4 | d4 (e2 d2) | (3(c2 B2 c2) B4 | B4 e4 | %24
w: che- * rubs|tuned * * * * his|praise,||||||
w: gar- * den|and * * * * their|God,||||||
 d4 (cBcd | B2) A2 G4 | F4 E4- | E4 z4 |] z4 z4 |] %29
w: |||||
w: |||||
V:3
 E,4 G,2 F,2 | E,4 E,4 | (G,4 F,2) B,2 | E,8 | E,4 (E,2 B,,2 | E,2) E,2 B,4- | B,4 E,4 | G,6 F,2 | %8
w: ||||||||
w: ||||||||
 E,8 | E,4 E,4- | E,2 E,2 F,4- | F,2 F,2 [B,,B,]4 | B,,4 E,4- | E,4 B,,4 | (E,D,C,D, E,2) E,2 | %15
w: |||||* 1.~The|joy- * * * * ful|
w: |||||* 2.~They|lost * * * * their|
 G,6 A,2 | (E,8 | A,,6) B,,2 | E,8 | E,4 (C,4 | D,2) E,2 F,4 | G,4 G,4 | F,4 E,4 | E,4 E,4 | %24
w: che- rubs|tuned|* his|praise,|And eve-|* ry ben-|ding throne|a- dored,|And eve-|
w: gar- den|and|* their|God,|And ru-|* ined all|their un-|born race,|And ru-|
 G,4 (F,4 | E,2) A,2 B,4 | B,,4 E,4- | E,4 z4 |] z4 z4 |] %29
w: ry ben-|* ding throne|a- dored.|||
w: ined all|* their un-|born race.|||

